!!!SOCIAL_FUNCTION:	songs of social dances
!!!PDT:	1958
!!!OTL: No_14_Social_Dance_Song_(b).krn
!!!REG: Northern California
!!!LANG: Non-Tone
!!!LING_GROUP: Penutian
**kern
*staff1
=1-
=
*clefF4
*k[b-e-a-]
*M2/4
8.G\L
16F\Jk
8.F\L
16E-\Jk
=2
4F\
16F\LL
16E-\JJ
8r
=3
8.G\L
16F\Jk
8.F\L
16E-\Jk
=4
4F\
16F\LL
16E-\JJ
8r
=5
8.c\L
16B-\Jk
8.G\L
16F\Jk
=6
4F\
16F\LL
16E-\JJ
8r
=7
16G\LK
8.G\J
16F\LL
16F\
16.F\
32E-\JJk
=8
4F\
16F\LL
16E-\JJ
8r
==:|!
*-
